icons/bin.svg

<svg xmlns="http://www.w3.org/2000/svg" width="24" height="24" viewBox="0 0 24 24">
  <path d="M19,8 L19,20 C19,21.1045695 18.1045695,22 17,22 L7,22 C5.8954305,22 5,21.1045695 5,20 L5,8 L19,8 Z M4,7 C3.44771525,7 3,6.55228475 3,6 C3,5.48716416 3.38604019,5.06449284 3.88337887,5.00672773 L4,5 L8,5 C8,3.40231912 9.24891996,2.09633912 10.8237272,2.00509269 L11,2 L13,2 C14.5976809,2 15.9036609,3.24891996 15.9949073,4.82372721 L16,5 L20,5 C20.5522847,5 21,5.44771525 21,6 C21,6.51283584 20.6139598,6.93550716 20.1166211,6.99327227 L20,7 L4,7 Z M13,4 L11,4 C10.4871642,4 10.0644928,4.38604019 10.0067277,4.88337887 L10,5 L14,5 C14,4.48716416 13.6139598,4.06449284 13.1166211,4.00672773 L13,4 Z"/>
</svg>

<svg xmlns="http://www.w3.org/2000/svg" viewBox="0 0 24 24">
  <path d="M19 8v12a2 2 0 0 1-2 2H7a2 2 0 0 1-2-2V8h14zM4 7a1 1 0 0 1-.12-2H8a3 3 0 0 1 2.82-3H13a3 3 0 0 1 3 2.82V5h4a1 1 0 0 1 .12 2H4zm9-3h-2a1 1 0 0 0-1 .88V5h4a1 1 0 0 0-.88-1H13z"/>
</svg>
